X:1
T:Title
%%score { 1 | 2 }
L:1/8
Q:1/4=106
M:4/4
K:Db
V:1 treble nm="Grand Piano"
V:2 bass 
V:1
 [FA]4 [DF]2 [EG]2 | [GB]3 [FA] [FA]2 z2 | [CEA]4 [CE]2 [DF]2 | [EG]3 [FA] [DF]2 z2 | %4
w: Fred~A.~Fillmore * *||||
 [FA]4 [DF]2 [EG]2 | [GB]3 [FA] [FA]2 [FA]2 | c3 B d2 =G2 |[M:3/4] [CEA]6 |[M:1/4] A2 | %9
w: |||||
[M:4/4] c2 c2 E2 A2 | d2 d2 D2 [DAd]2 | e3 e d2 [Ec]2 | [Fd]6 z2 |] %13
w: ||||
V:2
 [D,D]4 [D,A,]2 [D,A,]2 | [D,D]3 [D,D] [D,D]2 z2 | [A,,A,]4 [A,,A,]2 [A,,A,]2 | %3
 [A,,A,]3 [A,,A,] [D,A,]2 z2 | [D,D]4 [D,A,]2 [D,A,]2 | [D,D]3 [D,D] [D,D]2 [D,D]2 | %6
 [E,A,E]3 [E,=G,E] [E,B,E]2 [E,DE]2 |[M:3/4] [A,,A,]6 |[M:1/4][K:treble] [A,C]2 | %9
[M:4/4] [A,EG]2 [A,EG]2 A,2 [A,CG]2 | [B,DF]2 [B,DF]2[K:bass] B,2 F,2 | %11
 [G,B,G]3 [G,B,G] [A,F]2[K:bass] [A,,A,]2 | [D,A,]6 z2 |] %13

